X: 16
M: 6/8
L: 1/8
K: D
[A2F2]A [d2D2]F | A[AG][AF] [A2E2]z |
c>BA ABc | [d3D3] [dD]z :|
|: e |\
[f2A2]e [d2D2]c | d2c {c}[BD]cd |\
[e2A2]d [c2E2]B | [AD3]BA A2G |
cBA ABc | [d3D3] [dD]z :|


